usr/share/icons/biglinux-icons-material/scalable/apps/kpersonalizer.svg

<?xml version="1.0" encoding="UTF-8" standalone="no"?>
<svg
   width="24"
   height="24"
   viewBox="0 0 6.349875 6.349875"
   version="1.1"
   id="svg8"
   sodipodi:docname="kvantum.svg"
   inkscape:version="1.3 (0e150ed6c4, 2023-07-21)"
   inkscape:export-filename="../../../../../../../../../Imagens/Big Icons/kvantum.pdf"
   inkscape:export-xdpi="96"
   inkscape:export-ydpi="96"
   xml:space="preserve"
   xmlns:inkscape="http://www.inkscape.org/namespaces/inkscape"
   xmlns:sodipodi="http://sodipodi.sourceforge.net/DTD/sodipodi-0.dtd"
   xmlns="http://www.w3.org/2000/svg"
   xmlns:svg="http://www.w3.org/2000/svg"><defs
     id="defs8"><radialGradient
       fx="0"
       fy="0"
       cx="0"
       cy="0"
       r="1"
       gradientUnits="userSpaceOnUse"
       gradientTransform="matrix(0,16.500002,-16.500002,0,8.999998,0.749999)"
       spreadMethod="pad"
       id="radialGradient12763-3"><stop
         style="stop-opacity:1;stop-color:#a4a4a4"
         offset="0"
         id="stop12759-6" /><stop
         style="stop-opacity:1;stop-color:#626262"
         offset="1"
         id="stop12761-7" /></radialGradient><radialGradient
       fx="0"
       fy="0"
       cx="0"
       cy="0"
       r="1"
       gradientUnits="userSpaceOnUse"
       gradientTransform="matrix(0,22.000001,-22.000001,0,51.299175,48.822406)"
       spreadMethod="pad"
       id="radialGradient6"><stop
         style="stop-opacity:1;stop-color:#a4a4a4"
         offset="0"
         id="stop5" /><stop
         style="stop-opacity:1;stop-color:#626262"
         offset="1"
         id="stop6" /></radialGradient><radialGradient
       fx="0"
       fy="0"
       cx="0"
       cy="0"
       r="1"
       gradientUnits="userSpaceOnUse"
       gradientTransform="matrix(0,5.8207185,-5.8207185,0,3.1746946,0.2645635)"
       spreadMethod="pad"
       id="radialGradient868-3"><stop
         style="stop-color:#ffffff;stop-opacity:0.40000001;"
         offset="0"
         id="stop864-6" /><stop
         style="stop-color:#808080;stop-opacity:0;"
         offset="1"
         id="stop866-7" /></radialGradient></defs><sodipodi:namedview
     id="namedview8"
     pagecolor="#ffffff"
     bordercolor="#000000"
     borderopacity="0.25"
     inkscape:showpageshadow="2"
     inkscape:pageopacity="0.0"
     inkscape:pagecheckerboard="0"
     inkscape:deskcolor="#d1d1d1"
     inkscape:zoom="25.34375"
     inkscape:cx="9.2922318"
     inkscape:cy="11.541307"
     inkscape:window-width="2560"
     inkscape:window-height="998"
     inkscape:window-x="0"
     inkscape:window-y="0"
     inkscape:window-maximized="1"
     inkscape:current-layer="svg8"><inkscape:page
       x="0"
       y="0"
       width="6.349875"
       height="6.349875"
       id="page8"
       margin="0"
       bleed="0" /></sodipodi:namedview><g
     id="g1"
     inkscape:groupmode="layer"
     inkscape:label="1"
     transform="matrix(0.26457812,0,0,0.26457812,16.349875,0)" /><path
     id="path1"
     d="M 4.729267,0.49601419 0.644886,1.4111017 c -0.0194,0.00423 -0.04268,0.012347 -0.06597,0.021872 C 0.507306,1.5779625 0.448038,1.7349455 0.402531,1.9056866 0.301638,2.3219561 0.256483,2.7435173 0.266008,3.1721338 c -0.0085,0.4025115 0.03175,0.8007898 0.118531,1.1934237 0.203902,0.8738133 0.745405,1.4082611 1.620629,1.6026378 0.476594,0.097718 0.95742,0.1351113 1.44248,0.1090062 0.43285,-0.00706 0.853,-0.080079 1.261156,-0.2180123 C 5.212913,5.67469 5.578031,5.3384994 5.802746,4.8506174 5.924099,4.569459 6.002767,4.2773648 6.039808,3.9729236 6.088138,3.5386627 6.097658,3.1047546 6.070148,2.6690826 6.049338,2.3233672 5.981958,1.9857656 5.87048,1.6576887 5.67187,1.1133633 5.305341,0.73025422 4.769482,0.50977246 c -0.01411,-0.005292 -0.02646,-0.009525 -0.04021,-0.0137581 z"
     style="fill:#6b328f;fill-opacity:1;fill-rule:nonzero;stroke:none;stroke-width:0.352771" /><path
     id="path2"
     d="M 3.796541,0.28787941 1.120421,0.77046989 C 0.771884,1.0375174 0.531999,1.4153349 0.402533,1.9056864 0.30164,2.3219559 0.256485,2.7435171 0.26601,3.1721336 0.25751,3.5746451 0.29776,3.9729234 0.384541,4.3655573 0.588443,5.2393706 1.129946,5.7738184 2.00517,5.9681951 2.338539,6.0355741 2.673318,6.0743792 3.01092,6.0824929 4.531009,5.2887585 5.568508,3.9563432 6.044043,2.3949795 6.009473,2.1441595 5.951623,1.8989837 5.87048,1.6576885 5.67187,1.1133631 5.305341,0.73025402 4.769482,0.50977226 4.455164,0.38983018 4.13132,0.31680662 3.796541,0.28787941 Z"
     style="fill:#2b70c3;fill-opacity:1;fill-rule:evenodd;stroke:none;stroke-width:0.352771" /><path
     id="path3"
     d="m 3.199652,0.26459654 c -0.190143,0 -0.380287,0.005644 -0.57043,0.0179913 -0.02893,0.008114 -0.05927,0.012347 -0.09101,0.012347 -0.0702,0.005644 -0.140403,0.0137581 -0.209193,0.0232829 L 1.333852,0.62971437 C 0.868195,0.89570357 0.556698,1.3200868 0.402538,1.9056864 0.301645,2.3219559 0.25649,2.7435171 0.266015,3.1721336 c -0.0085,0.4025115 0.03175,0.8007898 0.118531,1.1934237 0.05785,0.2451757 0.141814,0.4631881 0.252231,0.6543899 2.25985,-0.2575227 4.120011,-2.1730683 4.1186,-4.44385399 0,-0.0250467 -0.0011,-0.0483296 -0.0011,-0.0716125 C 4.435761,0.3859497 4.108037,0.31292614 3.769024,0.28541001 3.578881,0.27165191 3.389796,0.26459651 3.199652,0.26459654 Z"
     style="fill:#49bf5d;fill-opacity:1;fill-rule:evenodd;stroke:none;stroke-width:0.352771" /><path
     id="path4"
     d="m 3.118515,0.26600762 c -0.164038,0.001411 -0.326666,0.005644 -0.489293,0.0165802 -0.02893,0.008114 -0.05927,0.012347 -0.09101,0.012347 C 2.342777,0.31010392 2.1484,0.34185332 1.956846,0.38877182 1.135595,0.58420686 0.617375,1.0900802 0.402538,1.9056864 0.301645,2.3219559 0.25649,2.7435171 0.266015,3.1721336 c -0.0028,0.085371 -0.0014,0.1696828 0.0014,0.2550533 1.604049,-0.1559247 2.853916,-1.4181387 2.853916,-3.03594568 0,-0.0426853 -0.0014,-0.0839595 -0.0028,-0.12523364 z"
     style="fill:#ffb328;fill-opacity:1;fill-rule:evenodd;stroke:none;stroke-width:0.352771" /><path
     id="path5"
     d="m 2.021398,0.37360272 c -0.02187,0.005292 -0.04268,0.009525 -0.06456,0.0151691 C 1.135587,0.58420686 0.617367,1.0900802 0.40253,1.9056864 0.37466,2.0203369 0.35138,2.1332236 0.33198,2.2489324 1.20156,1.9815321 1.880997,1.2788126 2.0214,0.37360268 Z"
     style="fill:#e84e3f;fill-opacity:1;fill-rule:evenodd;stroke:none;stroke-width:0.352771" /><path
     d="m 2.5380663,0.29490708 c 0.031749,0 0.062088,-0.004233 0.091015,-0.012347 0.380287,-0.0250467 0.7605739,-0.0236356 1.1398025,0.002822 0.3443044,0.0275161 0.6776728,0.10195077 1.0004581,0.22436224 0.5358589,0.22048177 0.9023877,0.60359088 1.1009977,1.14791628 0.1114756,0.3280768 0.1788548,0.6656785 0.1996683,1.0113939 0.027516,0.435672 0.017991,0.8695801 -0.030338,1.303841 C 6.0026286,4.2773369 5.9239607,4.5694311 5.8026075,4.8505895 5.5778925,5.3384715 5.2127747,5.6746621 4.7086652,5.8591612 4.3005094,5.9970946 3.8803593,6.0701182 3.4475095,6.0771736 2.9624496,6.1032786 2.481623,6.0658849 2.0050296,5.9681674 1.1298052,5.7737907 0.58830202,5.2393429 0.38440049,4.3655296 0.29761887,3.9728957 0.25740299,3.5746174 0.26586949,3.1721059 0.25634468,2.7449004 0.30149934,2.3219282 0.4023918,1.9056586 0.61722923,1.0900525 1.1354496,0.58417916 1.9567,0.38874412 2.1482546,0.3418256 2.3426313,0.31007623 2.5380663,0.29490708 Z"
     style="fill:url(#radialGradient868-3);fill-rule:evenodd;stroke:none;stroke-width:0.352771"
     id="path870" /><path
     id="path7"
     d="m 1.631586,1.8520652 v 0.3196104 l 0.245176,0.017991 0.04163,0.056443 -0.408156,1.8605133 -0.06209,0.057854 -0.257522,0.017639 V 4.4978458 H 2.293032 V 4.1821165 L 2.066906,4.1658885 2.024226,4.1066225 2.189675,3.3954366 h 0.255054 l 0.366529,0.669559 c 0.15028,0.2963275 0.2547,0.423325 0.577133,0.4272054 0.09384,0.00141 0.13123,0.00847 0.382051,0 C 4.635788,3.796537 5.076752,3.2067042 5.146953,2.96682 5.189643,2.822184 5.122263,2.7325802 4.978682,2.7325802 c -0.0702,0 -0.151339,0.028927 -0.240943,0.086782 L 4.672829,3.3760346 C 4.495027,3.5993391 4.259376,3.8420454 3.971515,4.0953349 L 4.223746,3.0786494 C 4.262196,2.8828616 4.275956,2.7780886 4.143666,2.7382255 l -0.589833,0.1252337 -0.03175,0.106184 0.273044,0.041274 c 0.01799,0.067732 -0.0635,0.2741029 -0.104772,0.500229 l -0.13229,0.7027195 c -0.0028,0.00706 -0.0042,0.015169 -0.0056,0.023636 C 3.467095,4.1934057 3.413473,4.1133264 3.349975,3.9933843 L 2.833165,3.0620693 3.778591,2.2090695 4.056927,2.1787315 V 1.8520652 H 2.954519 V 2.178731 L 3.34045,2.196722 3.36514,2.259868 2.366093,3.064891 H 2.246151 l 0.184852,-0.8187811 0.05221,-0.056443 0.25082,-0.017991 V 1.8520652 Z"
     style="fill:#ffffff;fill-opacity:1;fill-rule:nonzero;stroke:none;stroke-width:0.352771" /></svg>

<svg xmlns="http://www.w3.org/2000/svg" xml:space="preserve" width="24" height="24" viewBox="0 0 6.35 6.35"><defs><radialGradient id="a" cx="0" cy="0" r="1" fx="0" fy="0" gradientTransform="rotate(90 1.455 1.72) scale(5.82072)" gradientUnits="userSpaceOnUse" spreadMethod="pad"><stop offset="0" style="stop-color:#fff;stop-opacity:.40000001"/><stop offset="1" style="stop-color:gray;stop-opacity:0"/></radialGradient></defs><path d="m4.73.496-4.085.915a.423.423 0 0 0-.066.022c-.072.145-.131.302-.176.473-.101.416-.147.838-.137 1.266-.008.403.032.8.119 1.194.203.873.745 1.408 1.62 1.602.477.098.958.135 1.443.11.432-.008.853-.08 1.26-.219.505-.184.87-.52 1.095-1.008.121-.282.2-.574.237-.878.048-.434.058-.868.03-1.304a3.853 3.853 0 0 0-.2-1.011A1.891 1.891 0 0 0 4.73.496z" style="fill:#6b328f;fill-opacity:1;fill-rule:nonzero;stroke:none;stroke-width:.352771"/><path d="M3.797.288 1.12.77c-.348.268-.588.645-.717 1.136-.101.416-.147.838-.137 1.266-.008.403.032.8.119 1.194.203.873.745 1.408 1.62 1.602.334.068.668.106 1.006.114 1.52-.793 2.558-2.126 3.033-3.687a4.034 4.034 0 0 0-.174-.737A1.891 1.891 0 0 0 4.77.51a3.576 3.576 0 0 0-.973-.222Z" style="fill:#2b70c3;fill-opacity:1;fill-rule:evenodd;stroke:none;stroke-width:.352771"/><path d="M3.2.265a8.8 8.8 0 0 0-.57.018.336.336 0 0 1-.092.012 3.68 3.68 0 0 0-.209.023L1.334.63C.868.896.557 1.32.403 1.906c-.101.416-.147.838-.137 1.266-.008.403.032.8.119 1.194.057.245.141.463.252.654 2.26-.258 4.12-2.173 4.118-4.444V.504a3.657 3.657 0 0 0-.986-.219c-.19-.013-.38-.02-.57-.02Z" style="fill:#49bf5d;fill-opacity:1;fill-rule:evenodd;stroke:none;stroke-width:.352771"/><path d="M3.119.266a8.352 8.352 0 0 0-.49.017.336.336 0 0 1-.09.012c-.196.015-.39.047-.582.094C1.136.584.617 1.09.403 1.906c-.101.416-.147.838-.137 1.266-.003.086-.001.17.001.255C1.871 3.271 3.121 2.01 3.121.391L3.12.266z" style="fill:#ffb328;fill-opacity:1;fill-rule:evenodd;stroke:none;stroke-width:.352771"/><path d="m2.021.374-.064.015C1.136.584.617 1.09.403 1.906a4.812 4.812 0 0 0-.071.343c.87-.267 1.549-.97 1.69-1.875Z" style="fill:#e84e3f;fill-opacity:1;fill-rule:evenodd;stroke:none;stroke-width:.352771"/><path d="M2.538.295A.335.335 0 0 0 2.63.283c.38-.025.76-.024 1.14.002a3.62 3.62 0 0 1 1 .225c.536.22.903.603 1.101 1.148.112.328.18.665.2 1.011.028.436.018.87-.03 1.304a3.166 3.166 0 0 1-.237.878c-.225.487-.59.824-1.094 1.008a4.125 4.125 0 0 1-1.261.218 5.644 5.644 0 0 1-1.443-.109C1.13 5.774.588 5.24.385 4.366a5.025 5.025 0 0 1-.12-1.194c-.009-.427.036-.85.137-1.266C.617 1.09 1.135.584 1.957.389c.191-.047.386-.079.581-.094Z" style="fill:url(#a);fill-rule:evenodd;stroke:none;stroke-width:.352771"/><path d="M1.632 1.852v.32l.245.018.041.056-.408 1.86-.062.058-.257.018v.316h1.102v-.316l-.226-.016-.043-.06.166-.71h.255l.366.669c.15.296.255.423.577.427.094.002.132.009.382 0 .866-.695 1.307-1.285 1.377-1.525.043-.145-.025-.234-.168-.234a.46.46 0 0 0-.241.086l-.065.557a5.793 5.793 0 0 1-.701.72l.252-1.017c.038-.196.052-.3-.08-.34l-.59.124-.032.107.273.04c.018.069-.063.275-.105.501l-.132.703a.117.117 0 0 0-.006.024c-.085-.045-.139-.125-.202-.245l-.517-.93.946-.854.278-.03v-.327H2.955v.327l.385.018.025.063-.999.805h-.12l.185-.819.052-.056.251-.018v-.32Z" style="fill:#fff;fill-opacity:1;fill-rule:nonzero;stroke:none;stroke-width:.352771"/></svg>
